X:1
T:Bagpipe
T:Waltz
%%score { 1 | 2 }
L:1/8
M:3/4
K:C
V:1 treble nm="Piano" snm="Pno."
V:2 bass 
V:1
 (e2 d2 c2) | c2 c2 c2 | (f2 e2 d2) | d2 d2 d2 | g2 g2 g2 | (g2 f2 e2) | (e2 f2 d2 | e6) :: %8
 (e2 d2 c2) | c2 c2 c2 | (f2 e2 d2) | d2 d2 d2 | g2 g2 g2 | (g2 f2 e2) | (e2 f2 d2 | c6) :| %16
V:2
 C,6 | E,6 | G,6 | F,6 | E,6 | C,6 | G,6 | C,6 :: C,6 | E,6 | G,6 | F,6 | E,6 | C,6 | G,6 | C,6 :| %16

